X:1
T:Title
%%score { ( 1 3 ) | ( 2 4 ) }
L:1/8
M:9/8
K:Bb
V:1 treble nm="Grand Piano"
V:3 treble 
V:2 bass 
V:4 bass 
V:1
 z3 z3[Q:1/4=100] [DF][_D=E][=DF] | [EG]3 [DF]3 [DB][EA][FB] | [Gc]3 [EG]3 [GB][FA]G | %3
 A3 G3 [EG][DF][_D=E] | [DF]6 [DF][_D=E][=DF] | [EG]3 [DF]3 [DB][EA][FB] | [Gc]3 [EG]3 [GB][FA]G | %7
 F3 B3 AGA |[M:3/4] [B,DB]6 |[M:12/8] z3 c6- c2 z | z6 [DF]6 | z3 c6- c2 z | %12
 [=Ec][EB][EG] z3 CCD _E3 | z3 d6- d2 z | Bcd e3 B,B,B, B,2 B, | z3 F6- F2 z | %16
[M:9/8] AGA B2- [DB-] [EB-][FB-][EB-] | [DB]3 z3 z3 |] %18
V:2
 z3 z3 [B,,B,][B,,B,][B,,B,] | [B,,B,]3 [B,,B,]3 [B,,F,][C,F,][D,B,] | %2
 [E,B,]3 [E,B,]3 [E,B,][E,B,][E,B,E] | [F,E]3 [F,A,E]3 [B,,B,][B,,B,][B,,G,] | %4
 [B,,B,]6 [B,,B,][B,,B,][B,,B,] | [B,,B,]3 [B,,B,]3 [B,,F,][C,F,][D,B,] | %6
 [E,B,]3 [E,B,]3 [E,B,][E,B,][E,B,E] | [F,B,D]3 [F,DF]3 [F,CE][F,B,E][F,CE] |[M:3/4] B,,6 | %9
[M:12/8][K:treble] z3[K:bass] E6- E2[K:treble] z | EEE D3[K:bass] B,,B,,B,, B,,2 B,, | %11
 z3[K:bass] A6- A2 z | z3 A,3 z6 | DED F6- F2 E | DEF G3[K:bass] E,E,E, E,2 E, | %15
 z3[K:bass] D6- D2 z |[M:9/8] [F,CE][F,B,E][F,CE] z2 F, G,A,G, | F,3 z3 z3 |] %18
V:3
 x9 | x9 | x9 | x9 | x9 | x9 | x9 | x9 |[M:3/4] x6 |[M:12/8] Bcd z3 A,A,A, A,2 B | %10
 AGA B3 B,B,B, B,2 B, | Bcd z3 CCC C2 A | z3 F3- F6 | FGF z3 B,B,B, B,2 c | z6 [EG]6 | %15
 BAG z3 B,B,B, B,2 B |[M:9/8] z3 .[B,D]3 z3 | x9 |] %18
V:4
 x9 | x9 | x9 | x9 | x9 | x9 | x9 | x9 |[M:3/4] x6 | %9
[M:12/8][K:treble] DEF[K:bass] z3 F,F,F, F,2[K:treble] D | x6[K:bass] x6 | %11
 DFB[K:bass] z3 F,F,F, F,2 [F,F] | [C,G,][C,G,][C,B,] F,3- [F,-A,][F,-A,][F,-B,] [F,C]3 | x12 | %14
 x6[K:bass] x6 | GFE[K:bass] z3 F,F,F, F,2 [F,DF] |[M:9/8] z3 B,,6- | B,,3 z3 z3 |] %18

